resources/haticons/SVG/sensor_window.svg

<!-- Generated by IcoMoon.io -->
<svg version="1.1" xmlns="http://www.w3.org/2000/svg" width="24" height="24" viewBox="0 0 24 24">
<title>sensor_window</title>
<path d="M18 3.984v16.031h-12v-16.031h12zM18 2.016h-12q-0.844 0-1.43 0.586t-0.586 1.383v16.031q0 0.797 0.586 1.383t1.43 0.586h12q0.844 0 1.43-0.586t0.586-1.383v-16.031q0-0.797-0.586-1.383t-1.43-0.586v0zM6.984 18.984h10.031v-6h-10.031v6zM9.984 9.984h4.031v1.031h3v-6h-10.031v6h3v-1.031z"></path>
</svg>

<svg xmlns="http://www.w3.org/2000/svg" width="24" height="24"><path d="M18 3.984v16.031H6V3.984h12zm0-1.968H6q-.844 0-1.43.586t-.586 1.383v16.031q0 .797.586 1.383t1.43.586h12q.844 0 1.43-.586t.586-1.383V3.985q0-.797-.586-1.383T18 2.016zM6.984 18.984h10.031v-6H6.984v6zm3-9h4.031v1.031h3v-6H6.984v6h3V9.984z"/></svg>
